X: 29173
T: New Bread, The
R: jig
M: 6/8
K: Dmajor
E|F2D Acd|G2E BGE|F2D Acd|ecA B2G|
F2D Acd|GAB cde|dcA GEA|DED D2:|
B|cdd edd|cAG FGA|cdd efg|age d2B|
cdd edd|cAG FGA|dcA GEA|DED D2:|
G|FDD ADD|BGd cAG|FDD ADD|GEA DED|
FDD ADD|FGA B3|dBc ABG|FGA d2:|

